32x32/apps/OPNplug.svg

<svg height="32" width="32" xmlns="http://www.w3.org/2000/svg"><rect height="28" opacity=".2" rx="1.4" width="28" x="2" y="3"/><rect fill="#c2352a" height="28" rx="1.4" width="28" x="2" y="2"/><path d="m3.4 2c-.775 0-1.4.625-1.4 1.4v1c0-.775.625-1.4 1.4-1.4h25.2c.775 0 1.4.625 1.4 1.4v-1c0-.775-.625-1.4-1.4-1.4z" fill="#f4f4f7" opacity=".1"/><path d="m25.984 11.986a1 1 0 0 0 -.984 1.014v3.763l-2.105-4.21a1 1 0 0 0 -1.895.447v8a1 1 0 1 0 2 0v-3.764l2.105 4.211a1 1 0 0 0 1.895-.447v-8a1 1 0 0 0 -1.016-1.014zm-11.35.008c-.421-.012-.696.008-.696.008a1 1 0 0 0 -.938.998v3.84a1 1 0 0 0 0 .318v3.842a1 1 0 1 0 2 0v-3.043c.43.012.57.078 1.184-.037.598-.113 1.252-.315 1.822-.778s.994-1.25.994-2.142c0-.859-.451-1.613-1.01-2.05s-1.19-.642-1.777-.77a8.717 8.717 0 0 0 -1.578-.186zm-6.634.006c-.71 0-1.358.168-1.86.543-.501.374-.795.913-.945 1.427-.3 1.03-.195 2.071-.195 3.03s-.105 2 .195 3.03" opacity=".2"/><path d="m25.984 10.986a1 1 0 0 0 -.984 1.014v3.764l-2.105-4.211a1 1 0 0 0 -1.895.447v8a1 1 0 1 0 2 0v-3.764l2.105 4.211a1 1 0 0 0 1.895-.447v-8a1 1 0 0 0 -1.016-1.014zm-11.35.008c-.421-.012-.696.008-.696.008a1 1 0 0 0 -.938.998v3.84a1 1 0 0 0 0 .318v3.842a1 1 0 1 0 2 0v-3.043c.43.012.57.078 1.184-.037.598-.112 1.252-.314 1.822-.777s.994-1.251.994-2.143c0-.859-.451-1.612-1.01-2.049s-1.19-.643-1.777-.771a8.717 8.717 0 0 0 -1.578-.186zm-6.634.006c-.71 0-1.358.168-1.86.543-.501.375-.795.913-.945 1.428-.3 1.028-.195 2.069-.195 3.029s-.105 2 .195 3.03" fill="#f5b0b0"/></svg>

<svg height="32" width="32" xmlns="http://www.w3.org/2000/svg">
    <rect height="28" opacity=".2" rx="1.4" width="28" x="2" y="3"/>
    <rect fill="#c2352a" height="28" rx="1.4" width="28" x="2" y="2"/>
    <path d="M3.4 2C2.625 2 2 2.625 2 3.4v1C2 3.625 2.625 3 3.4 3h25.2c.775 0 1.4.625 1.4 1.4v-1c0-.775-.625-1.4-1.4-1.4z" fill="#f4f4f7" opacity=".1"/>
    <path d="M25.984 11.986A1 1 0 0 0 25 13v3.763l-2.105-4.21A1 1 0 0 0 21 13v8a1 1 0 1 0 2 0v-3.764l2.105 4.211A1 1 0 0 0 27 21v-8a1 1 0 0 0-1.016-1.014zm-11.35.008a7.624 7.624 0 0 0-.696.008A1 1 0 0 0 13 13v3.84a1 1 0 0 0 0 .318V21a1 1 0 1 0 2 0v-3.043c.43.012.57.078 1.184-.037.598-.113 1.252-.315 1.822-.778S19 15.892 19 15c0-.859-.451-1.613-1.01-2.05s-1.19-.642-1.777-.77a8.717 8.717 0 0 0-1.578-.186zM8 12c-.71 0-1.358.168-1.86.543-.501.374-.795.913-.945 1.427C4.895 15 5 16.041 5 17s-.105 2 .195 3.03" opacity=".2"/>
    <path d="M25.984 10.986A1 1 0 0 0 25 12v3.764l-2.105-4.211A1 1 0 0 0 21 12v8a1 1 0 1 0 2 0v-3.764l2.105 4.211A1 1 0 0 0 27 20v-8a1 1 0 0 0-1.016-1.014zm-11.35.008a7.624 7.624 0 0 0-.696.008A1 1 0 0 0 13 12v3.84a1 1 0 0 0 0 .318V20a1 1 0 1 0 2 0v-3.043c.43.012.57.078 1.184-.037.598-.112 1.252-.314 1.822-.777S19 14.892 19 14c0-.859-.451-1.612-1.01-2.049s-1.19-.643-1.777-.771a8.717 8.717 0 0 0-1.578-.186zM8 11c-.71 0-1.358.168-1.86.543-.501.375-.795.913-.945 1.428C4.895 13.999 5 15.04 5 16s-.105 2 .195 3.03" fill="#f5b0b0"/>
</svg>
